Sardi Mono Papirus Dark/16x16/actions/journal-new.svg

<?xml version="1.0" encoding="UTF-8" standalone="no"?>
<svg xmlns="http://www.w3.org/2000/svg" width="16" height="16" viewBox="0 0 16 16">
 <defs>
  <style type="text/css" id="current-color-scheme">
   .ColorScheme-Text { color:#d3dae3; }
  </style>
 </defs>
 <path style="fill:currentColor;opacity:1" class="ColorScheme-Text" d="M 1 1 L 1 3 L 15 3 L 15 1 L 1 1 z M 1 5.0039062 L 1 7.0039062 L 15 7.0039062 L 15 5.0039062 L 1 5.0039062 z M 1 9.0039062 L 1 11.003906 L 7 11.003906 L 7 9.0039062 L 1 9.0039062 z M 11 9.0039062 L 11 11.003906 L 9 11.003906 L 9 13.003906 L 11 13.003906 L 11 15.003906 L 13 15.003906 L 13 13.003906 L 15 13.003906 L 15 11.003906 L 13 11.003906 L 13 9.0039062 L 11 9.0039062 z M 1 13 L 1 15 L 7 15 L 7 13 L 1 13 z"/>
</svg>

<?xml version="1.0" encoding="UTF-8" standalone="no"?>
<!-- Created with Inkscape (http://www.inkscape.org/) -->
<svg id="svg7384" xmlns:rdf="http://www.w3.org/1999/02/22-rdf-syntax-ns#" style="enable-background:new" xmlns="http://www.w3.org/2000/svg" xmlns:osb="http://www.openswatchbook.org/uri/2009/osb" height="16" width="16" version="1.1" xmlns:cc="http://creativecommons.org/ns#" xmlns:dc="http://purl.org/dc/elements/1.1/">
 <metadata id="metadata90">
  <rdf:RDF>
   <cc:Work rdf:about="">
    <dc:format>image/svg+xml</dc:format>
    <dc:type rdf:resource="http://purl.org/dc/dcmitype/StillImage"/>
    <dc:title>Paper Symbolic Icon Theme</dc:title>
   </cc:Work>
  </rdf:RDF>
 </metadata>
 <title id="title8473">Paper Symbolic Icon Theme</title>
 <defs id="defs7386">
  <filter id="filter7554" style="color-interpolation-filters:sRGB">
   <feBlend id="feBlend7556" in2="BackgroundImage" mode="darken"/>
  </filter>
 </defs>
 <g id="layer12" transform="translate(-265 -40.997)">
  <path id="path4160" opacity=".72" d="m1 1v2h14v-2h-14zm0 4.0039v2h14v-2h-14zm0 4v2.0001h6v-2.0001h-6zm10 0v2.0001h-2v2h2v2h2v-2h2v-2h-2v-2.0001h-2zm-10 3.9961v2h6v-2h-6z" transform="translate(265 40.997)" fill="#fff"/>
 </g>
</svg>
